build/assets/img/svg/icon-arrow-10.svg

<svg width="120" height="99" viewBox="0 0 120 99" fill="none" xmlns="http://www.w3.org/2000/svg">
<path d="M31.7926 25.1233L32.9757 26.6067C34.1715 25.5153 35.3673 24.4239 36.7372 23.4127L35.5541 21.9292C34.2803 22.7501 32.9884 24.0318 31.7926 25.1233ZM39.4898 18.8155L40.5768 20.4893C41.9467 19.4781 43.2205 18.6572 44.4944 17.8364L43.6777 16.0526C42.2297 16.7932 40.9559 17.614 39.4898 18.8155ZM48.1179 13.6404L48.6642 15.5343C49.2049 15.3142 49.7456 15.0941 50.016 14.984C51.0013 14.7341 51.8124 14.4039 52.7977 14.154L52.5218 12.15C51.5365 12.3999 50.377 12.5696 49.4697 13.0901C49.1994 13.2002 48.6586 13.4203 48.1179 13.6404ZM57.5083 11.6318L57.3396 13.6656C58.8475 13.6564 60.2593 13.8375 61.5748 14.2089L62.1881 12.1453C60.8725 11.7739 59.1904 11.7028 57.5083 11.6318ZM65.5035 15.7841C66.6267 16.5361 67.75 17.2882 68.6809 18.4209L70.2432 17.0291C69.3123 15.8964 67.9368 14.7935 66.6393 13.9612L65.5035 15.7841ZM70.6625 22.1491C71.0527 23.5019 71.4429 24.8547 71.4666 26.5078L73.4372 26.008C73.2394 24.2745 73.0415 22.5411 72.4771 21.1081L70.6625 22.1491ZM71.3815 30.9262C71.3271 32.3088 71.0024 33.8015 70.7556 35.5647L72.7862 35.7962C73.0329 34.033 73.4538 32.35 73.5082 30.9674L71.3815 30.9262ZM69.7633 40.5035L69.4385 41.9962C69.1319 43.028 68.9995 44.14 68.5967 45.3621L70.6272 45.5937C70.9338 44.5619 71.0662 43.4499 71.3729 42.4181L71.6976 40.9254L69.7633 40.5035ZM67.7005 50.1107C67.5499 51.6836 67.3032 53.4468 67.1527 55.0197L69.1051 54.9807C69.2557 53.4078 69.4062 51.8349 69.5568 50.262L67.7005 50.1107ZM67.0494 59.899C67.0731 61.5521 67.0967 63.2053 67.2166 64.6681L69.1872 64.1683C69.0673 62.7054 69.0437 61.0522 68.9239 59.5894L67.0494 59.899ZM67.8282 69.4075C68.1223 70.9506 68.4163 72.4937 68.7103 74.0368L70.6029 73.2664C70.3089 71.7233 69.9187 70.3705 69.6247 68.8274L67.8282 69.4075ZM70.0369 78.6363C70.6013 80.0693 71.0696 81.6927 71.634 83.1257L73.4485 82.0848C72.8841 80.6517 72.3197 79.2187 71.9295 77.8659L70.0369 78.6363ZM73.6937 87.1245C74.5284 88.4475 75.0928 89.8805 75.9276 91.2035L77.6641 89.892C76.8293 88.569 76.1688 87.3262 75.5082 86.0835L73.6937 87.1245ZM78.528 94.9821C79.0325 95.6837 79.537 96.3853 80.0415 97.087L81.6038 95.6952C81.0993 94.9936 80.4986 94.4823 79.9942 93.7807L78.528 94.9821Z" fill="black"/>
<path d="M31.1304 14.075L33.1617 14.3068L31.2549 24.4587L41.003 24.7253L40.8344 26.7598L28.8626 26.6422L31.1304 14.075Z" fill="black"/>
</svg>

<svg width="120" height="99" fill="none" xmlns="http://www.w3.org/2000/svg"><path d="M31.793 25.123l1.183 1.484c1.196-1.092 2.391-2.183 3.761-3.194l-1.183-1.484c-1.274.821-2.566 2.103-3.761 3.194zm7.697-6.308l1.087 1.674c1.37-1.01 2.644-1.832 3.917-2.653l-.816-1.783c-1.448.74-2.722 1.561-4.188 2.762zm8.628-5.175l.546 1.894 1.352-.55c.985-.25 1.796-.58 2.782-.83l-.276-2.004c-.986.25-2.145.42-3.052.94l-1.352.55zm9.39-2.008l-.168 2.034c1.507-.01 2.92.171 4.235.543l.613-2.064c-1.316-.371-2.998-.442-4.68-.513zm7.995 4.152c1.124.752 2.247 1.504 3.178 2.637l1.562-1.392c-.93-1.133-2.306-2.236-3.604-3.068l-1.135 1.823zm5.16 6.365c.39 1.353.78 2.706.804 4.359l1.97-.5c-.198-1.733-.395-3.467-.96-4.9l-1.815 1.041zm.719 8.777c-.055 1.383-.38 2.875-.626 4.639l2.03.231c.247-1.763.668-3.446.722-4.829l-2.126-.04zm-1.619 9.578l-.325 1.492c-.306 1.032-.439 2.144-.841 3.366l2.03.232c.307-1.032.44-2.144.746-3.176l.325-1.493-1.935-.421zM67.7 50.11c-.15 1.573-.397 3.336-.547 4.909l1.952-.04.452-4.718-1.856-.151zm-.65 9.788c.023 1.653.047 3.306.167 4.77l1.97-.5c-.12-1.464-.143-3.117-.263-4.58l-1.875.31zm.778 9.508l.882 4.63 1.893-.77c-.294-1.544-.684-2.896-.978-4.44l-1.797.58zm2.209 9.23c.564 1.432 1.033 3.056 1.597 4.489l1.814-1.041c-.564-1.433-1.128-2.866-1.518-4.22l-1.893.771zm3.657 8.487c.834 1.324 1.399 2.757 2.234 4.08l1.736-1.312c-.835-1.323-1.495-2.566-2.156-3.808l-1.814 1.04zm4.834 7.858l1.513 2.105 1.563-1.392c-.505-.701-1.105-1.213-1.61-1.914l-1.466 1.201z" fill="#000"/><path d="M31.13 14.075l2.032.232-1.907 10.152 9.748.266-.169 2.035-11.971-.118 2.267-12.567z" fill="#000"/></svg>
